icons/haskell.svg

<svg width="32" height="32" fill="none" xmlns="http://www.w3.org/2000/svg"><path d="M2 25.882L8.588 16 2 6.118h4.941L13.529 16l-6.588 9.882H2z" fill="#453A62"/><path d="M8.588 25.882L15.177 16 8.588 6.118h4.941l13.177 19.764h-4.941l-4.118-6.176-4.118 6.176H8.588z" fill="#5E5086"/><path d="M24.51 20.118l-2.196-3.294L30 16.823v3.295h-5.49zM21.216 15.177l-2.196-3.294L30 11.882v3.295h-8.784z" fill="#8F4E8B"/></svg>

<svg width="32" height="32" viewBox="0 0 32 32" fill="none" xmlns="http://www.w3.org/2000/svg">
<path d="M2 25.882L8.588 16L2 6.11804H6.941L13.529 16L6.941 25.882H2Z" fill="#453A62"/>
<path d="M8.58801 25.882L15.177 16L8.58801 6.11804H13.529L26.706 25.882H21.765L17.647 19.706L13.529 25.882H8.58801Z" fill="#5E5086"/>
<path d="M24.51 20.118L22.314 16.824L30 16.823V20.118H24.51Z" fill="#8F4E8B"/>
<path d="M21.216 15.177L19.02 11.883L30 11.882V15.177H21.216Z" fill="#8F4E8B"/>
</svg>
